img/surfbot-icon.svg

<svg width="22" height="39" viewBox="0 0 22 39" version="1.1" xmlns="http://www.w3.org/2000/svg" xmlns:xlink="http://www.w3.org/1999/xlink">
<title>surfbot-icon</title>
<desc>Created using Figma</desc>
<g id="Canvas" transform="translate(-219 -1817)">
<g id="surfbot-icon">
<use xlink:href="#path0_fill" transform="translate(219 1817.82)" fill="#1188EE"/>
</g>
</g>
<defs>
<path id="path0_fill" fill-rule="evenodd" d="M 9.63967 0.279679C 10.1612 -0.0932265 10.8618 -0.0932264 11.3834 0.279679C 17.8802 4.92494 20.8255 10.4938 21.0111 18.4836C 21.0968 22.2988 20.7299 25.7921 19.6133 28.8098C 18.4681 31.8293 16.4315 34.6191 13.4332 36.9749C 13.0549 37.2698 12.5585 37.3659 12.0976 37.2335C 11.1793 36.9696 11.023 35.88 10.5115 35.2009C 9.99974 35.8804 9.84439 36.9694 8.9254 37.2335C 8.46452 37.3659 7.96817 37.2698 7.58987 36.9749C 4.5915 34.6191 2.55499 31.8293 1.40971 28.8098C 0.293102 25.7921 -0.0737632 22.2988 0.0119281 18.4836C 0.197553 10.4938 3.1428 4.92494 9.63967 0.279679ZM 12.9984 33.5335C 14.8746 31.8068 16.0052 29.9225 16.8041 27.756C 17.8092 25.1066 18.0991 22.1805 18.0119 18.5534C 17.8672 12.3233 16.4108 8.2689 11.9984 4.5045L 11.9984 15.5155C 13.7236 15.9599 14.4984 17.6538 14.4984 19.5195C 14.4984 21.3852 13.7236 23.0791 11.9984 23.5235L 11.9984 32.5325C 11.9984 32.5325 12.8001 33.2723 12.9984 33.5335ZM 7.99835 33.5335C 6.12206 31.8068 5.01787 29.9225 4.21893 27.756C 3.21389 25.1066 2.92391 22.1805 3.01112 18.5534C 3.15557 12.3357 4.60442 8.26389 8.99835 4.5045L 8.99835 15.5155C 7.27312 15.9599 6.49835 17.6538 6.49835 19.5195C 6.49835 21.3852 7.27312 23.0791 8.99835 23.5235L 8.99835 32.5325C 8.99835 32.5325 8.18923 33.2819 7.99835 33.5335ZM 10.4984 17.5175C 9.39378 17.5175 8.49835 18.4138 8.49835 19.5195C 8.49835 20.6252 9.39378 21.5215 10.4984 21.5215C 11.6029 21.5215 12.4984 20.6252 12.4984 19.5195C 12.4984 18.4138 11.6029 17.5175 10.4984 17.5175Z"/>
</defs>
</svg>

<svg xmlns="http://www.w3.org/2000/svg" xmlns:xlink="http://www.w3.org/1999/xlink" viewBox="0 0 22 39"><use xlink:href="#a" fill="#18E" transform="translate(0 .82)"/><defs><path id="a" fill-rule="evenodd" d="M9.64.28a1.499 1.499 0 0 1 1.743 0c6.497 4.645 9.443 10.214 9.628 18.204.086 3.815-.281 7.308-1.398 10.326-1.145 3.02-3.181 5.81-6.18 8.165a1.5 1.5 0 0 1-1.335.258c-.919-.263-1.075-1.353-1.587-2.032-.511.68-.667 1.768-1.586 2.032-.46.133-.957.037-1.335-.258-2.998-2.356-5.035-5.146-6.18-8.165C.293 25.792-.074 22.299.012 18.484.198 10.494 3.142 4.924 9.64.28Zm3.358 33.253c1.877-1.726 3.007-3.61 3.806-5.777 1.005-2.65 1.295-5.576 1.208-9.203-.145-6.23-1.601-10.284-6.014-14.049v11.011c1.726.445 2.5 2.139 2.5 4.005 0 1.865-.774 3.56-2.5 4.003v9.01s.802.74 1 1Zm-5 0c-1.876-1.726-2.98-3.61-3.78-5.777-1.004-2.65-1.294-5.576-1.207-9.203.145-6.217 1.593-10.29 5.987-14.049v11.011c-1.725.445-2.5 2.139-2.5 4.005 0 1.865.775 3.56 2.5 4.003v9.01s-.809.749-1 1Zm2.5-16.016c-1.104 0-2 .897-2 2.003a2.001 2.001 0 1 0 2-2.003Z"/></defs></svg>
